X:1
T: The Maid that dare not tell
C:
R:Reel
Q: 232
K:D
M:4/4
L:1/8
|:G|FA AF GB BG|FA AF GF ED|FA AF GF GA|Bd AF D2 DG|
FA AF GB BG|FA AF GF ED|FA AF GF GA|Bd AF D2 Dg|
fd eg fd ef|gf ed B2 Ag|fd eg fd eg|fa ef d2 dg|
fd eg fd ef|gf ed B2 A2|FA FA GF GA|Bd AF D3:|
